X:1
T:I Buried My Wife and Danced on Her Grave
C:Traditional
R:Jig
O:Irish
M:6/8
L:1/8
K:G
|:DED F2 G|AdB cAF|G2A BAG|F2 F GEA|DED F2G|AdB cAF|G2A BAG|AFD D3:|
|:d2e fed| faf gfe| d2e fed| dcA dcA|d2e fed| faf gfe |dcA BAG|AFD D3:|
